X:1
T:Title
%%score 1 { ( 2 4 ) | ( 3 5 ) }
L:1/8
Q:1/4=50
M:2/2
K:Db
V:1 treble nm="Voice"
V:2 treble nm="Piano"
V:4 treble 
V:3 bass 
V:5 bass 
V:1
"^Langsam und in Massia" z8 | z8 | z8 | z8 | z8 | z4!p! F2 B2 | c4 F2 F2 | B4 z2 B2 | =d4 d4 | %9
 f6 f2 | e4 c2 c2 | f4 z2 =d2 | =d6 d2 | c6 c2 | B4 B2 B2 | e4 z4 | c4 B4 | =A8- | A4 z4 | %19
 z4 z2 c2 | _c6 c2 | B6 B2 | A4 A4 | d4 z4 | z4 F4 | G6 F2 | E4 F2 G2 | C4 z4 | z2 E2 D2 E2 | F8- | %30
 F2 F2 F3 F | B,8- | B, z z2 z4 |] %33
V:2
 z4!pp!!<(! (B4!<)! |!p!!>(! f8!>)! |!pp! d) z z2 z4 | z4!pp!!<(! (B4!<)! |!p!!>(! f8!>)! | %5
!pp! d) z z2 z4 |!pp! (c4!<(! f4!<)! |!pp!!>(! [=df]8-!>)! | [df]) z z2 z4 | %9
!pp!!<(! (=d4!<)!!>(! f4 |!<(! [=Ae]8!<)! |!pp!!>(! [=df]8-!>)! | [df]) z z2 z4 |!pp! (c4 e4 | %14
!<(! [=Gd]8!<)! |!>(! [ce]8-!>)! | [ce]) z z2 z4 |!pp! (=A4 c4 |!<(! [G_c]8!<)! |!>(! [_ce]8-!>)! | %20
 [ce]) z z2 z4 |!pp! (B4 d4 |!<(! [F_c]8!<)! |!>(! [Bd]8-!>)! | [Bd]) z z2 z4 |!pp! (G4 B4 | %26
!<(! [CG]8!<)! |!>(! [GB]8-!>)! | [GB]) z z2 z4 |!pp! (F4!<(! B4 | [E=A]8!<)! |!>(! [FB]8-!>)! | %32
 [FB]) z z2 z4 |] %33
V:3
 [B,,,B,,]8- | [B,,,B,,]8- | [B,,,B,,]8- | [B,,,B,,]8- | [B,,,B,,]8- | [B,,,B,,]8- | [B,,,B,,]8- | %7
 [B,,,B,,]8- | [B,,,B,,] z z2 z4 | [=D,,=D,]8- | [D,,D,]8- | [D,,D,]8- | [D,,D,] z z2 z4 | %13
 [C,,C,]8- | [C,,C,]8- | [C,,C,]8- | [C,,C,] z z2 z4 | [F,,F,]8- | [F,,F,]8- | [F,,F,]8- | %20
 [F,,F,] z z2 z4 | [B,,,B,,]8- | [B,,,B,,]8- | [B,,,B,,]8- | [B,,,B,,] z z2 z4 | [E,,E,]8- | %26
 [E,,E,]8- | [E,,E,]8- | [E,,E,] z z2 z4 | F,8- | F,8- | F,8- | F, z z2 z4 |] %33
V:4
 x8 | x2!>(! (c2 B2!>)! =A2 | F) x7 | x8 | x2!>(! (c2 B2!>)! =A2 | F) x7 | F8- | F8- | F x7 | F8- | %10
 F8- | F8- | F x7 | ([E-=A]8 | E8-) | E8- | E x7 | ([E-F]8 | E8-) | E8- | E x7 | ([D-F]8 | D8-) | %23
 D8- | D x7 | D8 | x8 | x8 | x8 |[I:staff +1] ([B,D-]8 |[I:staff -1] D8-) | D8- | D x7 |] %33
V:5
 x8 | x8 | x8 | x8 | x8 | x8 | x8 | x8 | x8 | x8 | x8 | x8 | x8 | x8 | x8 | x8 | x8 | x8 | x8 | %19
 x8 | x8 | x8 | x8 | x8 | x8 | x8 | A,,8- | A,,8- | A,, x7 | x8 | x8 | z4 (B,,2 A,,2 | G,,) x7 |] %33

